X:1
T:Title
%%score { 1 | ( 2 3 ) }
L:1/8
M:4/4
K:Eb
V:1 treble nm="Grand Piano"
V:2 bass 
V:3 bass 
V:1
 z4 z2[Q:1/4=104] [B,GB]>[B,FA] | [B,EG]2 [B,FA]2 [EGB]2 [EAc]2 | [EGB]4 [FA]2 [FA]>[EG] | %3
 [DF]2 [EG]2 [FA]2 [GB]2 |[M:3/4] [FA]4 G2 |[M:1/4] [B,GB]>[B,FA] | %6
[M:4/4] [B,EG]2 [B,FA]2 [EGB]2 [EAc]2 | [EGB]4 [FA]2 [FA]>[EG] | [DF]2 [EG]2 [FA]2 [GB]2 | %9
[M:3/4] [FA]4 [EG]2 |[M:1/4] [GB]>[GB] |[M:4/4] c2 c2 A2 c2 | [GB]4 G2 G>G | F2 F2 G2 =A2 | %14
[M:3/4] B6 |[M:1/4] [GB]>[GB] |[M:4/4] c2 c2 A2 c2 | [GB]4 G2 E>E | %18
 D2 E2 [EG]2 [DF]2[Q:1/4=102][Q:1/4=101][Q:1/4=99][Q:1/4=98][Q:1/4=96][Q:1/4=94][Q:1/4=93][Q:1/4=91][Q:1/4=89][Q:1/4=88][Q:1/4=86][Q:1/4=85][Q:1/4=83][Q:1/4=81][Q:1/4=80] | %19
[M:3/4] [B,E]6 |] %20
V:2
 z4 z2 E,>E, | E,2 E,2 E,2 E,2 | z4 D2 [B,,B,]>[B,,B,] | [B,,B,]2 [B,,B,]2 [B,,B,]2 [B,,B,]2 | %4
[M:3/4] z2 z2 E2 |[M:1/4] E,>E, |[M:4/4] E,2 E,2 E,2 E,2 | z4 D2 [B,,B,]>[B,,B,] | %8
 [B,,B,]2 [B,,B,]2 [B,,B,]2 [B,,B,]2 |[M:3/4] [E,B,]6 |[M:1/4] [E,E]>[E,E] | %11
[M:4/4][K:treble] [A,EA]2 [A,EA]2 [A,CE]2 [A,EA]2 | E4 [B,E]2 [E,B,E]>[E,B,E] | %13
 [F,=A,C]2 [F,A,C]2 [F,B,C]2[K:treble] [F,CF]2 |[M:3/4] [B,DF]6 |[M:1/4][K:bass] [E,E]>[E,E] | %16
[M:4/4][K:treble] [A,EA]2 [A,EA]2 [A,CE]2 [A,EA]2 | E4 [B,E]2 [E,G,B,]>[E,G,B,] | %18
 [B,,F,B,]2 [B,,G,B,]2 [B,,B,]2 [B,,A,]2 |[M:3/4] [E,G,]6 |] %20
V:3
 x8 | x8 | B,,6 z2 | x8 |[M:3/4] [E,B,]6 |[M:1/4] x2 |[M:4/4] x8 | B,,6 z2 | x8 |[M:3/4] x6 | %10
[M:1/4] x2 |[M:4/4][K:treble] x8 | E,6 z2 | x6[K:treble] x2 |[M:3/4] x6 |[M:1/4][K:bass] x2 | %16
[M:4/4][K:treble] x8 | E,6 z2 | x8 |[M:3/4] x6 |] %20

